svgs/sharp-regular/land-mine-on.svg

<svg xmlns="http://www.w3.org/2000/svg" viewBox="0 0 640 512"><!--! Font Awesome Pro 6.6.0 by @fontawesome - https://fontawesome.com License - https://fontawesome.com/license (Commercial License) Copyright 2024 Fonticons, Inc. --><path d="M344 24l0 144 0 24-48 0 0-24 0-144 0-24 48 0 0 24zM69.7 132.3l104 72 19.7 13.7-27.3 39.5-19.7-13.7-104-72L22.6 158.1l27.3-39.5 19.7 13.7zm528 39.5l-104 72-19.7 13.7-27.3-39.5 19.7-13.7 104-72 19.7-13.7 27.3 39.5-19.7 13.7zM192 288l256 0 0 64 64 0 44.8 112L576 512l-51.7 0-408.6 0L64 512l19.2-48L128 352l64 0 0-64zM160.5 400l-25.6 64 370.2 0-25.6-64-319 0z"/></svg>

<svg xmlns="http://www.w3.org/2000/svg" viewBox="0 0 640 512"><!--! Font Awesome Pro 6.4.0 by @fontawesome - https://fontawesome.com License - https://fontawesome.com/license (Commercial License) Copyright 2023 Fonticons, Inc. --><path d="M344 24V168v24H296V168 24 0h48V24zM69.7 132.3l104 72 19.7 13.7-27.3 39.5-19.7-13.7-104-72L22.6 158.1l27.3-39.5 19.7 13.7zm528 39.5l-104 72-19.7 13.7-27.3-39.5 19.7-13.7 104-72 19.7-13.7 27.3 39.5-19.7 13.7zM192 288H448v64h64l44.8 112L576 512H524.3 115.7 64l19.2-48L128 352h64V288zM160.5 400l-25.6 64H505.1l-25.6-64h-319z"/></svg>
